!!!!SEGMENT: pl-wtm--a-27-704-73_kagan-jakub--il-java.krn
!!!cenid: 19xx:16
!!!COM: Kagan, Jakub
!!!COM-rismID: pe50046719
!!!CDT: 1896/02/07-1942
!!!CNT: Polish
!!!OTL: Il Java
!!!PDT:
!!!AGN: Secular
!!!YEC: Copyright 2022 Narodowy Instytut Fryderyka Chopina (https://polishscores.org)
!!!YEM: License CC-BY-4.0 (https://creativecommons.org/licenses/by/4.0)
!!!SMS-siglum: PL-Wtm
!!!SMS-shelfmark: A.27.704/73
!!!SMS-variant:
!!!SMS-altvar:
!!!SMS-shelfwork: W
!!!NIFC-rismSourceID: 1001219855
!!!NIFC-rismChildID: 1001219855
!!!NIFC-islandoraID: pl-wtm:95478
!!!URL-pdf-islandora: https://repozytorium.nifc.pl/islandora/object/pl-wtm%3A95478/datastream/PDF/view
!!!URL-scan: https://polish.musicsources.pl/pl/lokalizacje/galeria/druki-muzyczne/20366/2 @EN{Scan on Polish Music Sources Website} @PL{Skany w portalu Dziedzictwo Muzyki Polskiej w otwartym dostępie}
!!!IIIF:
!!!ONB-nifc:
!!!AIN: 2 piano
!!!key: G
**kern	**kern	**dynam
*part2	*part1	*part1
*staff2	*staff1	*
*I"[Piano]	*I"[Piano]	*
*I'[pf]	*I'[pf]	*
*ICklav	*ICklav	*
*Ipiano	*Ipiano	*
*clefF4	*clefG2	*
*k[f#]	*k[f#]	*
*G:	*G:	*
*M3/4	*M3/4	*
=1	=1	=1
4CC/ 4C	8cc\L	ff
.	8dd\	.
4C\ 4E 4A	8ee\	.
.	8dd\	.
4CC/ 4C	8cc\	.
.	8ee\J	.
=2	=2	=2
4DD/ 4D	8dd\L	f
.	8cc\	.
4D\ 4G 4B	8b\	.
.	8cc\	.
4DD/ 4D	8dd\	.
.	8b\J	.
=3	=3	=3
4DD/ 4D	8a/L	p
.	8b/	.
4A\ 4c 4d	8cc/	.
.	8b/	.
4DD/ 4D	8a/	.
.	8b/J	.
=4	=4	=4
4GG/ 4G	4g/	.
4GG^\ 4BB 4D 4G	4g^\ 4b 4dd 4gg	.
4r	4r	.
!!LO:LB:g=original	!	!
*kcancel	*kcancel	*
=5||	=5||	=5||
*k[b-e-]	*k[b-e-]	*
4GG/ 4G	4g^>/	p
4B-\ 4d	8g/L	.
.	8a/	.
4B-\ 4d	8b-/	.
.	8a/J	.
=6	=6	=6
4GG/ 4G	4g^>/	.
4B-\ 4d	8g/L	.
.	8a/	.
4B-\ 4d	8b-/	.
.	8a/J	.
=7	=7	=7
4GG/ 4G	4g^>/	.
4B-\ 4d	8g/L	<
.	8a/	.
4B-\ 4d	8b-/	.
.	8cc/J	[[
=8	=8	=8
4GG/ 4G	2.dd^\	.
4B-\ 4d	.	.
4B-\ 4d	.	.
=9	=9	=9
4CC/ 4C	4ee-^\	.
4E-\ 4G 4c	8ee-\L	.
.	8dd\	.
4EE-/ 4E-	8cc\	.
.	8ee-\J	.
!!LO:LB:g=original	!	!
=10	=10	=10
4GG/ 4G	4dd^\	.
4B-\ 4d	8dd\L	.
.	8cc\	.
4GG/ 4G	8b-\	.
.	8dd\J	.
=11	=11	=11
4EE-/ 4E-	8a/L	.
.	8b-/	.
4G\ 4c#X	8a/	.
.	8g/	.
4EE-/ 4E-	8f#X/	.
.	8g/J	.
=12	=12	=12
4DD/ 4D	2.d/ 2.f#X 2.a	f > ]]
8DD/L 8D	.	.
8CC/ 8C	.	.
8BBB-/ 8BB-	.	.
8AAA/J 8AA	.	.
=13	=13	=13
4GGG/ 4GG	4g^>/	p
4B-\ 4d	8g/L	.
.	8a/	.
4B-\ 4d	8b-/	.
.	8a/J	.
=14	=14	=14
4GG/ 4G	4g^>/	.
4B-\ 4d	8g/L	.
.	8a/	.
4B-\ 4d	8b-/	.
.	8a/J	.
!!LO:LB:g=original	!	!
=15	=15	=15
4GG/ 4G	4g^>/	<
4B-\ 4d	8g/L	.
.	8a/	.
4B-\ 4d	8b-/	.
.	8cc/J	[[
=16	=16	=16
4GG/ 4G	2.dd\	f
4B-\ 4d	.	.
4B-\ 4d	.	.
=17	=17	=17
4CC/ 4C	8ee-\L	.
.	8ff\J	.
4E-\ 4G 4c	4gg\	.
4EE-/ 4E-	4ee-\	.
=18	=18	=18
4GG/ 4G	4dd\	.
4B-\ 4d	8dd\L	.
.	8cc\J	.
4GG/ 4G	4b-\	.
=19	=19	=19
4DD/ 4D	4cc\	.
4c\ 4d 4f#X	8cc\L	.
.	8b-\	.
4DD/ 4D	8a\	.
.	8cc\J	.
!!LO:LB:g=original	!	!
=20	=20	=20
4GG/ 4G	8b-\L	.
.	8a\J	.
4B-\ 4d	2g/	.
4B-\ 4d	.	.
=21	=21	=21
4CC/ 4C	8ee-\L	.
.	8ff\	.
4E-\ 4G 4c	8gg\	.
.	8ff#X\	.
4EE-/ 4E-	8gg\	.
.	8ee-\J	.
=22	=22	=22
4GG/ 4G	8dd\L	.
.	8bb-\	.
4B-\ 4d	8aa\	.
.	8gg\	.
4GG/ 4G	8dd\	.
.	8b-\J	.
=23	=23	=23
4DD/ 4D	8a/L	.
.	8b-/J	.
4c\ 4d 4f#X	4cc\	.
4DD/ 4D	4a/	.
=24	=24	=24
4GG/ 4G	4g/	.
4GG^\ 4BB- 4D 4G	4g^\ 4b- 4dd 4gg	.
4r	4r	.
!!LO:PB:g=original	!	!
*kcancel	*kcancel	*
=25||	=25||	=25||
*k[f#]	*k[f#]	*
4GG/ 4G	4g^>/ 4b	p
4B\ 4d	8g\L 8b	.
.	8a\J 8cc	.
4B\ 4d	4b\ 4dd	.
=26	=26	=26
4GG/ 4G	4g^>/ 4b	.
4B\ 4d	8g\L 8b	.
.	8a\J 8cc	.
4B\ 4d	4b\ 4dd	.
=27	=27	=27
4DD/ 4D	4a^>\ 4cc	.
4A\ 4c 4d	8a\L 8cc	.
.	8g#X\ 8b	.
4DD/ 4D	8a\ 8cc	.
.	8gn\J 8b	.
=28	=28	=28
4DD/ 4D	2.f#/ 2.a	.
8DD/L 8D	.	.
8CC#X/J 8C#X	.	.
4DD/ 4D	.	.
=29	=29	=29
4DD/ 4D	4a^>\ 4cc	.
4A\ 4c 4d	8a\L 8cc	.
.	8b\J 8dd	.
4A\ 4c 4d	4cc\ 4ee	.
!!LO:LB:g=original	!	!
=30	=30	=30
4DD/ 4D	4a^>\ 4cc	.
4A\ 4c 4d	8a\L 8cc	.
.	8b\J 8dd	.
4A\ 4c 4d	4cc\ 4ee	.
=31	=31	=31
4GG/ 4G	4b\ 4dd	.
4B\ 4d	8b\L 8dd	.
.	8a#X\ 8cc#X	.
4DD/ 4D	8b\ 8dd	.
.	8an\J 8ccn	.
=32	=32	=32
4GG^/ 4G	2.g/ 2.b	.
4DD^/ 4D	.	.
4BBB^/ 4BB	.	.
=33	=33	=33
4GGG/ 4GG	4b\ 4dd	.
4Fn\ 4G 4B	8b\L 8dd	<
.	8cc\J 8ee	.
4GGG/ 4GG	4dd\ 4ffn	.
=34	=34	=34
4CC/ 4C	4cc\ 4ee	.
4C\ 4E 4A	8cc\L 8ee	.
.	8b\J 8dd	[
4C\ 4E 4A	4a\ 4cc	.
!!LO:LB:g=original	!	!
=35	=35	=35
4CC/ 4C	4a/ 4cc	.
4C\ 4E-X 4A	8a\L 8cc	.
.	8b\J 8dd	.
4CC/ 4C	4cc\ 4ee-X	.
=36	=36	=36
4DD/ 4D	4b\ 4dd	.
4D\ 4G 4B	8b\L 8dd	.
.	8a\J 8cc	.
4D\ 4G 4B	4g/ 4b	.
=37	=37	=37
*	*^	*
!	!	!LO:TX:b:Bi:t=cresc_ :problem:dynamics with line extensions	!
4EE/ 4E	8a/L	8g\L	<
.	8b/	8g\	.
4G\ 4A 4c#X	8cc#X/	8g\	.
.	8a/	8g\	.
4AAA/ 4AA	8b/	8g\	.
.	8cc#/J	8g\J	.
=38	=38	=38	=38
4EE/ 4E	8a/L	8g\L	.
.	8b/	8g\	.
4G\ 4A 4c#X	8cc#X/	8g\	.
.	8a/	8g\	.
4AAA/ 4AA	8b/	8g\	.
.	8cc#/J	8g\J	[[
*	*v	*v	*
=39	=39	=39
4D^\ 4d	[2.f#/ [2.dd	f
4C#X^\ 4c#X	.	.
4Cn^\ 4cn	.	.
!!LO:LB:g=original	!	!
=40	=40	=40
4AA\ 4A	2.f#/] 2.dd]	>]
4FF#/ 4F#	.	.
4DD/ 4D	.	.
=41	=41	=41
4GG/ 4G	4g^>/ 4b	p
4B\ 4d	8g\L 8b	.
.	8a\J 8cc	.
4B\ 4d	4b\ 4dd	.
=42	=42	=42
4GG/ 4G	4g^>/ 4b	.
4B\ 4d	8g\L 8b	.
.	8a\J 8cc	.
4B\ 4d	4b\ 4dd	.
=43	=43	=43
4DD/ 4D	4a\ 4cc	.
4A\ 4c 4d	8a\L 8cc	.
.	8g#X\ 8b	.
4DD/ 4D	8a\ 8cc	.
.	8gn\J 8b	.
=44	=44	=44
4DD^/ 4D	2.f#/ 2.a	.
8DD^/L 8D	.	.
8CC#X^/J 8C#X	.	.
4DD^/ 4D	.	.
=45	=45	=45
4DD/ 4D	4a^\ 4cc	.
4A\ 4c 4d	8a\L 8cc	.
.	8b\J 8dd	.
4A\ 4c 4d	4cc\ 4ee	.
!!LO:LB:g=original	!	!
=46	=46	=46
4DD/ 4D	4a^>/ 4cc	.
4A\ 4c 4d	8a\L 8cc	.
.	8b\J 8dd	.
4A\ 4c 4d	4cc\ 4ee	.
=47	=47	=47
4GG/ 4G	4b\ 4dd	.
4B\ 4d	8b\L 8dd	.
.	8a#X\ 8cc#X	.
4DD/ 4D	8b\ 8dd	.
.	8an\J 8ccn	.
=48	=48	=48
4GG^/ 4G	2.g/ 2.b	.
4FFn^/ 4Fn	.	.
4DD^/ 4D	.	.
=49	=49	=49
4CC/ 4C	8cc\L 8ee	f
.	8dd\J 8ff#	.
4C\ 4E 4A	4ee\ 4gg	.
4C\ 4E 4B	4cc\ 4ee	.
=50	=50	=50
4GG/ 4G	4b\ 4dd	.
4D\ 4G 4B	8b\L 8dd	.
.	8a\J 8cc	.
4D\ 4G 4B	4g/ 4b	.
!!LO:LB:g=original	!	!
=51	=51	=51
4DD/ 4D	4a\ 4cc	.
4A\ 4B 4d	8a\L 8cc	.
.	8g\J 8b	.
4DD/ 4D	4f#/ 4a	.
=52	=52	=52
4GG/ 4G	8g\L 8b	.
.	8a\ 8cc	.
4B\ 4d	8b\ 8dd	<
.	8g\ 8b	.
4GG/ 4G	8a\ 8cc	.
.	8b\J 8dd	[[
=53	=53	=53
4CC/ 4C	8cc\L 8ee	f
.	8dd\ 8ff#	.
4C\ 4E 4A	8ee\ 8gg	.
.	8dd#X\ 8ff#	.
4C\ 4E 4A	8ee\ 8gg	.
.	8cc\J 8ee	.
=54	=54	=54
4DD/ 4D	4b\ 4dd	.
4D\ 4G 4B	8b\L 8dd	.
.	8a\J 8cc	.
4D\ 4G 4B	4g/ 4b	.
=55	=55	=55
4DD/ 4D	4a\ 4cc	.
4A\ 4c 4d	8a\L 8cc	.
.	8g\J 8b	.
4DD/ 4D	4f#/ 4a	.
=56	=56	=56
4GG/ 4G	4B/ 4g	.
4GG^\ 4BB 4D 4G	4g^\ 4b 4dd 4gg	fz
4r	4r	.
==	==	==
*-	*-	*-
!!!system-decoration: {(s1,s2)}
!!!RDF**kern: > = above
!!!RDF**kern: < = below
!!!ENC: Berenika Jozajtis
!!!END: 2023-08-24
!!!ENC: Jan Barakat
!!!END: 2023-09-19
